usr/share/icons/biglinux-icons-material-dark/16/places/user-trash-full.svg

<svg width="16" height="16" version="1.1" xmlns="http://www.w3.org/2000/svg">
 <defs>
  <style id="current-color-scheme" type="text/css">.ColorScheme-Text { color:#dedede; }</style>
 </defs>
 <path d="m6 0c-0.554 0-1 0.446-1 1v1h-4v1h1v12c0 0.554 0.446 1 1 1h9c0.554 0 1-0.446 1-1v-12h1v-1h-4v-1c0-0.554-0.446-1-1-1h-3zm0 1h3v1h-3v-1zm-1 4h1v8h-1v-8zm2 0h1v8h-1v-8zm2 0h1v8h-1v-8z" style="fill:currentColor" class="ColorScheme-Text"/>
</svg>

<svg xmlns="http://www.w3.org/2000/svg" width="16" height="16">
<defs>
<style id="current-color-scheme" type="text/css">
.ColorScheme-Text{color:#dedede}
</style>
</defs>
<path d="M6 0c-.554 0-1 .446-1 1v1H1v1h1v12c0 .554.446 1 1 1h9c.554 0 1-.446 1-1V3h1V2h-4V1c0-.554-.446-1-1-1zm0 1h3v1H6zM5 5h1v8H5zm2 0h1v8H7zm2 0h1v8H9z" class="ColorScheme-Text" style="fill:currentColor"/>
</svg>
